!!!SOCIAL_FUNCTION:	ceremonial songs
!!!PDT:	1909
!!!OTL: No_63_Initiation_Song.krn
!!!REG: Great_Lakes
!!!LANG: Non-Tone
!!!LING_GROUP: Algonquin
**kern	**kern
*staff2	*staff1
*clefF4	*clefF4
*k[b-e-a-]	*k[b-e-a-]
*M4/4	*M4/4
2r	4c\
.	8c\L
.	8c\J
=1	=1
4GG/	2c\
4GG/	.
4GG/	8G\L
.	8G\J
4GG/	4G\
=2	=2
4GG/	2c\
4GG/	.
4GG/	4c\
4GG/	8c\L
.	8B-\J
=3	=3
1r	2G\
.	8E-\L
.	8E-\J
.	4E-\
=4	=4
1r	2G\
.	4G\
.	8F\L
.	8F\J
=5	=5
1r	2E-\
.	8C/L
.	8C/J
.	4C/
=6	=6
1r	2F\
.	4E-\
.	8E-\L
.	8E-\J
=7	=7
1r	2E-\
.	8C/L
.	8C/J
.	4C/
=8	=8
1r	2C/
.	4C/
.	8C/L
.	8C/J
=9	=9
1r	2C/
.	8C/L
.	8C/J
.	4C/
=10||	=10||
*M2/4	*M2/4
2r	4..C/
.	16C/
=11||	=11||
*M3/4	*M3/4
2.r	8.C/L
.	16C/Jk
.	4C/
.	4G\
=12	=12
2.r	4G\
.	8E-\L
.	8E-\J
.	4E-\
=13||	=13||
*M4/4	*M4/4
1r	2G\
.	4F\
.	8E-\L
.	8E-\J
=14	=14
1r	2E-\
.	8C/L
.	8C/J
.	4C/
=15	=15
1r	2F\
.	4F\
.	8E-\L
.	8E-\J
=16	=16
1r	2E-\
.	8C/L
.	8C/J
.	4C/
=17	=17
1r	2C/
.	4C/
.	8C/L
.	8C/J
=18	=18
1r	2C/
.	8C/L
.	8C/J
.	4C/
=19	=19
*M2/4	*M2/4
2r	2C/
==	==
*-	*-
